src/categories-icons-sprite/categories/svg-cat-prod-sweetness.svg

<svg width="32" height="33" viewBox="0 0 32 33" fill="none" xmlns="http://www.w3.org/2000/svg">
<path class="p-895D3C" d="M4.05859 28.5488V33H27.1V28.5488H4.05859Z" fill="#B9DFFC"/>
<path class="p-714C2F" d="M27.1008 28.5488H15.5801V33H27.1008V28.5488Z" fill="#A1D1FD"/>
<path class="p-FDBF00" d="M27.0789 29.9939H4.07944C-1.34583 23.9193 -1.36677 14.8493 4.05849 8.75391H27.0999C32.5251 14.8493 32.5042 23.9193 27.0789 29.9939Z" fill="#A1D1FD"/>
<path class="p-FF9100" d="M27.0798 29.9939H15.5801V8.75391H27.1008C32.526 14.8493 32.5051 23.9193 27.0798 29.9939Z" fill="#4D98CB"/>
<path class="p-FF9100" d="M22.9523 17.0277H19.8103L17.7156 13.8857H13.4424L11.3478 17.0277H8.20576L5.41992 21.2171L8.20576 25.4064H12.479L14.5736 22.2644H16.5844L18.6791 25.4064H22.9523L25.7382 21.2171L22.9523 17.0277Z" fill="#76B7E2"/>
<path class="p-FF641A" d="M25.7392 21.2171L22.9534 25.4064H18.6801L16.5854 22.2644H15.5801V13.8857H17.7167L19.8114 17.0277H22.9534L25.7392 21.2171Z" fill="#65B3E7"/>
<path class="p-FF9100" d="M23.2251 21.2172L21.8215 23.3119H19.8108L18.4072 21.2172L19.8108 19.1226H21.8215L23.2251 21.2172Z" fill="#A1D1FD"/>
<path class="p-FDBF00" d="M17.9878 18.0754L16.5842 20.1701H14.5735L13.1699 18.0754L14.5735 15.9807H16.5842L17.9878 18.0754Z" fill="#B9DFFC"/>
<path class="p-FF9100" d="M17.989 18.0754L16.5854 20.1701H15.5801V15.9807H16.5854L17.989 18.0754Z" fill="#A1D1FD"/>
<path class="p-FDBF00" d="M12.7515 21.2172L11.3479 23.3119H9.33716L7.93359 21.2172L9.33716 19.1226H11.3479L12.7515 21.2172Z" fill="#B9DFFC"/>
<path class="p-FAECD8" d="M29.4882 9.00526L28.7341 9.52893C27.603 10.283 26.3043 10.6601 25.0056 10.6601C23.9163 10.6601 22.848 10.3877 21.8636 9.86408C19.8946 10.9114 17.5486 10.9114 15.5796 9.86408C13.6106 10.9114 11.2646 10.9114 9.29557 9.86408C7.13799 11.0162 4.49884 10.9114 2.42498 9.529L1.6709 9.00533L4.05889 4.4599L5.35759 3.41256L4.05889 2.36523V0H27.1003V2.36523L25.613 3.41256L27.1003 4.4599L29.4882 9.00526Z" fill="#B9DFFC"/>
<path class="p-F4D7AF" d="M29.4887 9.00526L28.7346 9.52893C27.6035 10.283 26.3048 10.6601 25.0061 10.6601C23.9168 10.6601 22.8485 10.3877 21.8641 9.86408C19.8951 10.9114 17.5491 10.9114 15.5801 9.86408V0H27.1008V2.36523L25.6135 3.41256L27.1008 4.4599L29.4887 9.00526Z" fill="#A1D1FD"/>
<path class="p-895D3C" d="M27.1 2.36548H4.05859V4.46015H27.1V2.36548Z" fill="#76B7E2"/>
<path class="p-714C2F" d="M27.1008 2.36548H15.5801V4.46015H27.1008V2.36548Z" fill="#4D98CB"/>
</svg>

<svg width="32" height="33" fill="none" xmlns="http://www.w3.org/2000/svg"><path class="p-895D3C" d="M4.059 28.549V33H27.1v-4.451H4.059z" fill="#B9DFFC"/><path class="p-714C2F" d="M27.1 28.549H15.58V33H27.1v-4.451z" fill="#A1D1FD"/><path class="p-FDBF00" d="M27.079 29.994h-23a15.894 15.894 0 01-.02-21.24h23.04a15.894 15.894 0 01-.02 21.24z" fill="#A1D1FD"/><path class="p-FF9100" d="M27.08 29.994h-11.5V8.754H27.1a15.894 15.894 0 01-.02 21.24z" fill="#4D98CB"/><path class="p-FF9100" d="M22.952 17.028H19.81l-2.094-3.142h-4.274l-2.094 3.142H8.206l-2.786 4.19 2.786 4.188h4.273l2.095-3.142h2.01l2.095 3.142h4.273l2.786-4.189-2.786-4.19z" fill="#76B7E2"/><path class="p-FF641A" d="M25.74 21.217l-2.787 4.19H18.68l-2.095-3.143H15.58v-8.378h2.137l2.094 3.142h3.142l2.786 4.19z" fill="#65B3E7"/><path class="p-FF9100" d="M23.225 21.217l-1.404 2.095h-2.01l-1.404-2.095 1.404-2.094h2.01l1.404 2.094z" fill="#A1D1FD"/><path class="p-FDBF00" d="M17.988 18.075l-1.404 2.095h-2.01l-1.404-2.095 1.403-2.094h2.011l1.404 2.094z" fill="#B9DFFC"/><path class="p-FF9100" d="M17.989 18.075l-1.404 2.095H15.58v-4.19h1.005l1.404 2.095z" fill="#A1D1FD"/><path class="p-FDBF00" d="M12.752 21.217l-1.404 2.095h-2.01l-1.404-2.095 1.403-2.094h2.01l1.405 2.094z" fill="#B9DFFC"/><path class="p-FAECD8" d="M29.488 9.005l-.754.524a6.713 6.713 0 01-3.728 1.131 6.666 6.666 0 01-3.142-.796 6.677 6.677 0 01-6.284 0 6.677 6.677 0 01-6.284 0 6.696 6.696 0 01-6.871-.335l-.754-.524L4.059 4.46l1.299-1.047-1.3-1.048V0H27.1v2.365l-1.487 1.048L27.1 4.46l2.388 4.545z" fill="#B9DFFC"/><path class="p-F4D7AF" d="M29.489 9.005l-.754.524a6.713 6.713 0 01-3.729 1.131 6.666 6.666 0 01-3.142-.796 6.677 6.677 0 01-6.284 0V0H27.1v2.365l-1.487 1.048 1.488 1.047 2.388 4.545z" fill="#A1D1FD"/><path class="p-895D3C" d="M27.1 2.365H4.059V4.46H27.1V2.365z" fill="#76B7E2"/><path class="p-714C2F" d="M27.1 2.365H15.58V4.46H27.1V2.365z" fill="#4D98CB"/></svg>
